X: 6209
T: Carl Bley's
R: jig
M: 6/8
K: Dmajor
|:A2d cde|A2d cde|f2g afd|gfg e3|
A2d cde|A2d cde|fga gec|d2d d3:|
|:b2g Bgb|a2f dfa|gec Ace|dfg a3|
b2g Bgb|a2f dcB|Ace Ace|d3d3:|

